X:1
T:Title
%%score [ ( 1 2 ) ( 3 4 ) ]
L:1/8
Q:1/4=120
M:none
K:Bb
V:1 treble nm="Midi_74"
V:2 treble 
V:3 bass nm="Midi_74"
V:4 bass 
V:1
"^Psalm 102""^Domine exaudi""^Full"!p! D8 | D2 G2 | ^F8 || %3
w: Hear~my|prayer O|Lord.|
"^Chants: Henry Smart,\nWilliam Havergal" ^F8 | G2 G2 | c2 A2 A2 | B8 |"^Full"!p! B8 | B2 B2 _A2 | %9
w: and~let~my|cry- ing|come un- to|thee.|2~Hide~not~my~face~from~me~in~the|time of my|
 G8 || E8 | D2 D2 G2 | G2 ^F2 | G8 |]"^Dec"!mp! D8 | D2 G2 | ^F8 | ^F8 | G2 G2 G2 | c2 A2 | B8 | %21
w: trouble:|incline~thine~ear~unto~me~when~I~call;~~~O|hear me and|that right|soon.|3~For~my~days~are~consum'd~a-|way like|smoke:|and~my~bones~are~burnt|up as it|were a|fire\-brand.|
"^Can"!mp! B8 | B2 B2 _A2 | G8 || E8 | D2 G2 | G2 ^F2 | G8 |"^Dec"!mp! D8 | D2 D2 G2 | ^F8 || ^F2 | %32
w: 4~My~heart~is~smitten~down~and|with- er'd like|grass:|so~that~I~for-|get to|eat my|bread.|5~For~the|voice of my|groaning:|my|
 G2 G2 G2 | c2 A2 A2 | B8 |"^Can"!mp! B8 | B2 B2 B2 _A2 A2 | G8 || E8 | D2 G2 G2 | G2 ^F2 | G8 | %42
w: bones will scarce|cleave to my|flesh.|6~I~am~become~like~a|pe- li- can in the|wilderness:|and~like~an|owl that is|in the|desert.|
"^2nd part""^Can"!mp! B8 | B2 _A2 | G8 || E8 | D2 G2 | G2 ^F2 | G8 |"^Dec"!mp! D8 | D2 D2 G2 | %51
w: 7~I~have~watch'd,~~~and~am~even~as~it|were a|sparrow:|that~sitteth~a-|lone up-|on the|house\-top.|8~Mine~enemies~revile~me|all the day|
 ^F8 || ^F8 | G2 G2 | c2 c2 A2 | B8 ||"^Can"!mp! B8 | B2 B2 _A2 | G8 || E2 | D2 D2 G2 | G2 ^F2 | %62
w: long:|and~they~that~are~mad~upon~me~are|sworn to-|geth- er a-|gainst~me.|9~For~I~have~eaten~ashes|as it were|bread:|and|min- gled my|drink with|
 G8 |]"^Dec"!mf! D8 | D2 D2 G2 | ^F8 | ^F8 | G2 G2 | c2 A2 | B8 |"^Can"!p! B8 | B2 _A2 A2 | G8 || %73
w: weeping.|10~And~that~because~of~thine~indig-|na- tion and|wrath:|for~thou~hast~taken~me|up and|cast me|down.|11~My~days~are|gone like a|shadow:|
 E2 | D2 G2 | G2 G2 ^F2 | G8 |"^Full""^Change chant"!f! d8 | A2 =B2 | ^F8 || G8 | =e2 d2 | c2 c2 | %83
w: and|I am|with- er'd like|grass.||\-dure for|ever:|and~thy~remembrance~through-|out all|ge- ne-|
 =B8 |"^Full"!f! =B8 | ^F2 F2 G2 G2 | ^D8 || =E8 | c2 =B2 | A2 A2 | G8 |!p!"^2nd part""^Can" =B8 | %92
w: rations.||mer- cy up- on|Sion:|for~it~is~time~that~thou~have~mercy~upon~her,|yea the|time is|come.||
 ^F2 F2 G2 G2 | ^D8 || =E8 | c2 =B2 | A2 A2 | G8 |"^Dec"!f! d8 | A2 =B2 | ^F8 || G8 | =e2 e2 d2 | %103
w: think up- on her|stones:|and~it~pitieth~them~to|see her|in the|dust.||||||
 c2 c2 | =B8 |"^Can"!mf! =B8 | ^F2 G2 | ^D8 ||"^cresc." =E8 | c2 =B2 | A2 A2 | G8 |"^Dec"!mp! d8 | %113
w: |||||and~when~his|glo- ry|shall ap-|pear.||
 (A2 =B2) | ^F8 || G8 | =e2 d2 | c2 c2 c2 | =B8 ||"^Can"!mf! =B8 | ^F2 F2 G2 | ^D8 | =E8 | c2 =B2 | %124
w: |||||||||and~the~people~which~shall~be|born shall|
 A2 A2 | G8 |]"^Dec"!mf! d8 | A2 A2 =B2 | ^F8 || G8 | =e2 d2 | c2 c2 | =B8 |"^Can"!mf! =B8 | %134
w: praise the|Lord.||||out~of~the~heaven~did~the|Lord be-|hold the|earth.||
 ^F2 F2 F2 G2 G2 | ^D8 | =E8 | c2 c2 =B2 | A2 A2 A2 A2 | G8 |"^Full"!f! d8 | A2 =B2 | ^F8 || G8 | %144
w: ||and~deliver~the|child- ren ap-|point- ed un- to|death;|||||
 =e2 d2 | c2 c2 | =B8 |"^Full"!f! =B8 | ^F2 F2 G2 | ^D8 || =E8 | c2 c2 =B2 | A2 A2 | G8 | %154
w: ||||||||||
"^Change chant""^Dec"!p! D8 | D2 G2 | ^F2 F2 F2 | G2 G2 G2 | c2 c2 A2 | B8 |"^Can"!mp! B8 | %161
w: 23~He~brought|down my|strength in my|jour- ney and|short- ened my|days.|24~But~I~said,~~~O~my~God,~take~me~not~away~in~the|
 B2 B2 _A2 | G8 | E8 | D2 G2 G2 | G2 ^F2 F2 | G8 |"^Dec"!mf! D8 | D2 D2 G2 G2 | ^F8 | ^F8 | %171
w: midst of mine|age:|as~for~thy~years,~~~~~they~en-|dure through- out|all ge- ne-|rations.|25~Thou~Lord~in~the~beginning~hast~laid~the~found-|a- tion of the|earth:|and~the|
 G2 G2 G2 G2 | c2 c2 A2 | B8 |"^Can"!mf! B8 | B2 B2 _A2 | G8 || E8 | D2 G2 | G2 ^F2 | G8 | %181
w: hea- vens are the|work of thy|hands.|26~They~shall~perish~but|thou shalt en-|dure:|they~all~shall~wax|old as|doth a|garment.|
"^Dec"!mf! D8 | D2 D2 G2 | ^F8 | ^F8 | G2 G2 G2 | c2 c2 A2 | B8 |"^Can"!mf! B8 | B2 B2 _A2 A2 | %190
w: 27~And~as~a~vesture~shalt~thou~change~them,~~~~and|they shall be|changed:|but~thou~art~the|same and thy|years shall not|fail.|28~The~children~of~thy|ser- vants shall con-|
 G8 || E8 | D2 D2 G2 | G2 ^F2 F2 | G8 |"^Full"!f! D8 | D2 D2 G2 | ^F8 || ^F2 | G2 G2 | c2 A2 | B8 | %202
w: tinue:|and~their|seed shall stand|fast in thy|sight.|Glory~be~to~the~Father|and to the|Son:|and|to the|Ho- ly|Ghost:|
!f!"^Full" B8 | B2 B2 _A2 A2 | G8 || E8 | D2"^,\n" (G2 | G2 ^F2 | G8) | %209
w: As~it~was~in~the~beginning,~is|now and ev- er|shall~be:|world~without|end.~~~ A||men.|
V:2
 B,8 | D2 C2 | D8 || D8 | D2 B,2 | E2 D2 D2 | D8 | B,8 | C2 C2 D2 | B,8 || C8 | C2 C2 B,2 | E2 D2 | %13
w: |||||||||||||
 B,8 |] B,8 | D2 C2 | D8 | D8 | D2 B,2 B,2 | E2 D2 | D8 | B,8 | C2 C2 D2 | B,8 || C8 | C2 B,2 | %26
w: |||||||||||||
 E2 D2 | B,8 | B,8 | D2 D2 C2 | D8 || D2 | D2 D2 B,2 | E2 D2 D2 | D8 | B,8 | C2 C2 C2 D2 D2 | %37
w: |||||||||||
 B,8 || C8 | C2 B,2 B,2 | E2 D2 | B,8 | B,8 | C2 D2 | B,8 || C8 | C2 B,2 | E2 D2 | B,8 | B,8 | %50
w: |||||||||||||
 D2 D2 C2 | D8 || D8 | D2 B,2 | E2 E2 D2 | D8 || B,8 | C2 C2 D2 | B,8 || C2 | C2 C2 B,2 | E2 D2 | %62
w: ||||||||||||
 B,8 |] B,8 | D2 D2 C2 | D8 | D8 | D2 B,2 | E2 D2 | D8 | B,8 | C2 D2 D2 | B,8 || C2 | C2 B,2 | %75
w: |||||||||||||
 E2 E2 D2 | B,8 | G6 D2 | D2 D2 | D8 || G8 | G2 G2 | G2 ^F2 | G8 | G6 =E2 | ^F2 F2 =B,2 B,2 | %86
w: ||12~But~thou~O~Lord~shalt en|||||||13~Thou~shalt~arise~and have||
 =B,8 || =E8 | (=E^F) G2 | G2 ^F2 | G8 | G6 =E2 | ^F2 F2 =B,2 B,2 | =B,8 || =E8 | (=E^F) G2 | %96
w: |||||14~And~why?~~~thy~ser- vants|||||
 G2 ^F2 | G8 | G6 D2 | D2 D2 | D8 || G8 | G2 G2 G2 | G2 ^F2 | G8 | G6 =E2 | ^F2 =B,2 | =B,8 || %108
w: ||15~The~heathen~shall~fear thy|Name O|Lord:|and~all~the|kings of the|earth thy|Majesty.|16~When~the~Lord shall|build up|Sion:|
 =E8 | (=E^F) G2 | G2 ^F2 | G8 | G6 D2 | (D2 D2) | D8 || G8 | G2 G2 | G2 ^F2 F2 | G8 || G6 =E2 | %120
w: ||||17~When~he~turneth~him~unto~the~prayer~of the|poor *|destitute:|and~de-|spis- eth|not their de-|sire.|18~This~shall~be~written for|
 ^F2 F2 =B,2 | =B,8 | =E8 | (=E^F) G2 | G2 ^F2 | G8 |] G6 D2 | D2 D2 D2 | D8 || G8 | G2 G2 | %131
w: those that come|after:|||||19~For~he~hath look'd|down from his|sanctuary:|||
 G2 ^F2 | G8 | G6 =E2 | ^F2 F2 F2 =B,2 B,2 | =B,8 | =E8 | =E2 ^F2 G2 | G2 G2 ^F2 F2 | G8 | G6 D2 | %141
w: ||20~That~he~might~hear~the~mournings of|such as are in cap-|tivity:|||||21~That~they~may~declare~the~Name~of the|
 D2 D2 | D8 || G8 | G2 G2 | G2 ^F2 | G8 | G6 =E2 | ^F2 F2 =B,2 | =B,8 || =E8 | =E2 ^F2 G2 | %152
w: Lord in|Sion:|and~his|wor- ship|at Je-|rusalem.|22~When~the~people are|ga- ther'd to-|gether:|and~the~kingdoms|al- so to|
 G2 ^F2 | G8 | B,8 | D2 C2 | D2 D2 D2 | D2 D2 B,2 | E2 E2 D2 | D8 | B,8 | C2 C2 D2 | B,8 | C8 | %164
w: serve the|Lord.|||||||||||
 C2 B,2 B,2 | E2 D2 D2 | B,8 | B,8 | D2 D2 C2 C2 | D8 | D8 | D2 D2 B,2 B,2 | E2 E2 D2 | D8 | B,8 | %175
w: |||||||||||
 C2 C2 D2 | B,8 || C8 | C2 B,2 | E2 D2 | B,8 | B,8 | D2 D2 C2 | D8 | D8 | D2 B,2 B,2 | E2 E2 D2 | %187
w: ||||||||||||
 D8 | B,8 | C2 C2 D2 D2 | B,8 || C8 | C2 C2 B,2 | E2 D2 D2 | B,8 | B,8 | D2 D2 C2 | D8 || D2 | %199
w: ||||||||||||
 D2 B,2 | E2 D2 | D8 | B,8 | C2 C2 D2 D2 | B,8 || C8 | C2 (B,2 | E2 D2 | B,8) | %209
w: ||||||||||
V:3
 G,8 | A,2 G,2 | A,8 || A,8 | G,2 G,2 | G,2 ^F,2 F,2 | G,8 | B,8 | F,2 F,2 F,2 | G,8 || A,8 | %11
 ^F,2 F,2 G,2 | A,2 A,2 | G,8 |] G,8 | A,2 G,2 | A,8 | A,8 | G,2 G,2 G,2 | G,2 ^F,2 | G,8 | B,8 | %22
 F,2 F,2 F,2 | G,8 || A,8 | ^F,2 G,2 | A,2 A,2 | G,8 | G,8 | A,2 A,2 G,2 | A,8 || A,2 | %32
 G,2 G,2 G,2 | G,2 ^F,2 F,2 | G,8 | B,8 | F,2 F,2 F,2 F,2 F,2 | G,8 || A,8 | ^F,2 G,2 G,2 | %40
 A,2 A,2 | G,8 | B,8 | F,2 F,2 | G,8 || A,8 | ^F,2 G,2 | A,2 A,2 | G,8 | G,8 | A,2 A,2 G,2 | A,8 || %52
 A,8 | G,2 G,2 | G,2 G,2 ^F,2 | G,8 || B,8 | F,2 F,2 F,2 | G,8 || A,2 | ^F,2 F,2 G,2 | A,2 A,2 | %62
 G,8 |] G,8 | A,2 A,2 G,2 | A,8 | A,8 | G,2 G,2 | G,2 ^F,2 | G,8 | B,8 | F,2 F,2 F,2 | G,8 || A,2 | %74
 ^F,2 G,2 | A,2 A,2 A,2 | G,8 | =B,8 | A,2 G,2 | A,8 || D8 | C2 D2 | =E2 D2 | D8 | G,8 | %85
 =B,2 B,2 G,2 G,2 | ^F,8 || =B,8 | C2 D2 | =E2 (DC) | =B,8 | G,8 | =B,2 B,2 G,2 G,2 | ^F,8 || %94
 =B,8 | C2 D2 | =E2 (DC) | =B,8 | =B,8 | A,2 G,2 | A,8 || D8 | C2 C2 D2 | =E2 D2 | D8 | G,8 | %106
 =B,2 G,2 | ^F,8 || =B,8 | C2 D2 | =E2 (DC) | =B,8 | =B,8 | (A,2 G,2) | A,8 || D8 | C2 D2 | %117
 =E2 D2 D2 | D8 || G,8 | =B,2 B,2 G,2 | ^F,8 | =B,8 | C2 D2 | =E2 (DC) | =B,8 |] =B,8 | %127
 A,2 A,2 G,2 | A,8 || D8 | C2 D2 | =E2 D2 | D8 | G,8 | =B,2 B,2 B,2 G,2 G,2 | ^F,8 | =B,8 | %137
 C2 C2 D2 | =E2 E2 D2 C2 | =B,8 | =B,8 | A,2 G,2 | A,8 || D8 | C2 D2 | =E2 D2 | D8 | G,8 | %148
 =B,2 B,2 G,2 | ^F,8 || =B,8 | C2 C2 D2 | =E2 (DC) | =B,8 | G,8 | A,2 G,2 | A,2 A,2 A,2 | %157
 G,2 G,2 G,2 | G,2 G,2 ^F,2 | G,8 | B,8 | F,2 F,2 F,2 | G,8 | A,8 | ^F,2 G,2 G,2 | A,2 A,2 A,2 | %166
 G,8 | G,8 | A,2 A,2 G,2 G,2 | A,8 | A,8 | G,2 G,2 G,2 G,2 | G,2 G,2 ^F,2 | G,8 | B,8 | %175
 F,2 F,2 F,2 | G,8 || A,8 | ^F,2 G,2 | A,2 A,2 | G,8 | G,8 | A,2 A,2 G,2 | A,8 | A,8 | %185
 G,2 G,2 G,2 | G,2 G,2 ^F,2 | G,8 | B,8 | F,2 F,2 F,2 F,2 | G,8 || A,8 | ^F,2 F,2 G,2 | %193
 A,2 A,2 A,2 | G,8 | G,8 | A,2 A,2 G,2 | A,8 || A,2 | G,2 G,2 | G,2 ^F,2 | G,8 | B,8 | %203
 F,2 F,2 F,2 F,2 | G,8 || A,8 | ^F,2 (G,2 | A,2 A,2 | G,8) | %209
V:4
 G,8 | F,2 E,2 | D,8 || C,8 | B,,2 E,2 | C,2 D,2 D,2 | G,,8 | G,8 | F,2 F,2 B,,2 | E,8 || C,8 | %11
 D,2 D,2 E,2 | C,2 D,2 | G,,8 |] G,8 | F,2 E,2 | D,8 | C,8 | B,,2 E,2 E,2 | C,2 D,2 | G,,8 | G,8 | %22
 F,2 F,2 B,,2 | E,8 || C,8 | D,2 E,2 | C,2 D,2 | G,,8 | G,8 | F,2 F,2 E,2 | D,8 || C,2 | %32
 B,,2 B,,2 E,2 | C,2 D,2 D,2 | G,,8 | G,8 | F,2 F,2 F,2 B,,2 B,,2 | E,8 || C,8 | D,2 E,2 E,2 | %40
 C,2 D,2 | G,,8 | G,8 | F,2 B,,2 | E,8 || C,8 | D,2 E,2 | C,2 D,2 | G,,8 | G,8 | F,2 F,2 E,2 | %51
 D,8 || C,8 | B,,2 E,2 | C,2 C,2 D,2 | G,,8 || G,8 | F,2 F,2 B,,2 | E,8 || C,2 | D,2 D,2 E,2 | %61
 C,2 D,2 | G,,8 |] G,8 | F,2 F,2 E,2 | D,8 | C,8 | B,,2 E,2 | C,2 D,2 | G,,8 | G,8 | %71
 F,2 B,,2 B,,2 | E,8 || C,2 | D,2 E,2 | C,2 C,2 D,2 | G,,8 | G,8 | ^F,2 G,2 | D,8 || =B,,8 | %81
 C,2 =B,,2 | A,,2 D,2 | G,8 | =E,8 | ^D,2 D,2 =E,2 E,2 | =B,,8 || G,,8 | A,,2 =B,,2 | C,2 D,2 | %90
 [G,,=B,]8 | =E,8 | ^D,2 D,2 =E,2 E,2 | =B,,8 || G,,8 | A,,2 =B,,2 | C,2 D,2 | [G,,=B,]8 | G,8 | %99
 ^F,2 G,2 | D,8 || =B,,8 | C,2 C,2 =B,,2 | A,,2 D,2 | G,8 | =E,8 | ^D,2 =E,2 | =B,,8 || G,,8 | %109
 A,,2 =B,,2 | C,2 D,2 | [G,,=B,]8 | G,8 | (^F,2 G,2) | D,8 || =B,,8 | C,2 =B,,2 | A,,2 D,2 D,2 | %118
 G,8 || =E,8 | ^D,2 D,2 =E,2 | =B,,8 | G,,8 | A,,2 =B,,2 | C,2 D,2 | [G,,=B,]8 |] G,8 | %127
 ^F,2 F,2 G,2 | D,8 || =B,,8 | C,2 =B,,2 | A,,2 D,2 | G,8 | =E,8 | ^D,2 D,2 D,2 =E,2 E,2 | =B,,8 | %136
 G,,8 | A,,2 A,,2 =B,,2 | C,2 C,2 D,2 D,2 | [G,,=B,]8 | G,8 | ^F,2 G,2 | D,8 || =B,,8 | C,2 =B,,2 | %145
 A,,2 D,2 | G,8 | =E,8 | ^D,2 D,2 =E,2 | =B,,8 || G,,8 | A,,2 A,,2 =B,,2 | C,2 D,2 | [G,,=B,]8 | %154
 G,8 | F,2 E,2 | D,2 C,2 C,2 | B,,2 B,,2 E,2 | C,2 C,2 D,2 | G,,8 | G,8 | F,2 F,2 B,,2 | E,8 | %163
 C,8 | D,2 E,2 E,2 | C,2 D,2 D,2 | G,,8 | G,8 | F,2 F,2 E,2 E,2 | D,8 | C,8 | B,,2 B,,2 E,2 E,2 | %172
 C,2 C,2 D,2 | G,,8 | G,8 | F,2 F,2 B,,2 | E,8 || C,8 | D,2 E,2 | C,2 D,2 | G,,8 | G,8 | %182
 F,2 F,2 E,2 | D,8 | C,8 | B,,2 E,2 E,2 | C,2 C,2 D,2 | G,,8 | G,8 | F,2 F,2 B,,2 B,,2 | E,8 || %191
 C,8 | D,2 D,2 E,2 | C,2 D,2 D,2 | G,,8 | G,8 | F,2 F,2 E,2 | D,8 || C,2 | B,,2 E,2 | C,2 D,2 | %201
 G,,8 | G,8 | F,2 F,2 B,,2 B,,2 | E,8 || C,8 | D,2 (E,2 | C,2 D,2 | G,,8) | %209

